img/icon_phone.svg

<svg width="30" height="30" viewBox="0 0 30 30" fill="none" xmlns="http://www.w3.org/2000/svg">
    <path d="M25.6963 6.99316L22.5762 3.87598C22.1953 3.49512 21.6855 3.28125 21.1465 3.28125C20.6074 3.28125 20.0977 3.49219 19.7168 3.87598L16.3564 7.23047C15.9756 7.61133 15.7617 8.12402 15.7617 8.66309C15.7617 9.20508 15.9727 9.71191 16.3564 10.0957L18.9814 12.7236C18.3834 14.117 17.5242 15.3829 16.4502 16.4531C15.375 17.5342 14.1182 18.3867 12.7236 18.9902L10.0986 16.3623C9.71777 15.9814 9.20801 15.7676 8.66895 15.7676C8.40306 15.7666 8.13965 15.8187 7.89415 15.9208C7.64865 16.0229 7.426 16.173 7.23926 16.3623L3.87598 19.7168C3.49512 20.0977 3.28125 20.6104 3.28125 21.1494C3.28125 21.6914 3.49219 22.1982 3.87598 22.582L6.99316 25.6992C7.64355 26.3496 8.54004 26.7217 9.45996 26.7217C9.65039 26.7217 9.83496 26.707 10.0225 26.6748C13.9014 26.0361 17.751 23.9707 20.8594 20.8652C23.9648 17.7539 26.0273 13.9043 26.6719 10.0225C26.8564 8.9209 26.4873 7.78711 25.6963 6.99316ZM24.5947 9.67383C24.0234 13.1279 22.166 16.5732 19.3682 19.3711C16.5703 22.1689 13.1279 24.0264 9.67383 24.5977C9.24024 24.6709 8.79492 24.5244 8.47852 24.2109L5.41699 21.1494L8.66309 17.9004L12.1729 21.416L12.1992 21.4424L12.832 21.208C14.7508 20.5026 16.4932 19.3883 17.9384 17.9425C19.3837 16.4967 20.4974 14.7539 21.2022 12.835L21.4365 12.2021L17.8975 8.66602L21.1436 5.41699L24.2051 8.47852C24.5215 8.79492 24.668 9.24023 24.5947 9.67383Z"
          fill="#CE282E"/>
</svg>

<svg width="30" height="30" fill="none" xmlns="http://www.w3.org/2000/svg"><path d="M25.696 6.993l-3.12-3.117a2.015 2.015 0 00-2.86 0l-3.36 3.354a2.022 2.022 0 000 2.866l2.625 2.628a11.878 11.878 0 01-2.53 3.73 11.9 11.9 0 01-3.727 2.536l-2.625-2.628a2.015 2.015 0 00-2.86 0l-3.363 3.355a2.022 2.022 0 000 2.865l3.117 3.117a3.508 3.508 0 002.467 1.023c.19 0 .375-.015.563-.047 3.878-.639 7.728-2.704 10.836-5.81 3.106-3.111 5.168-6.96 5.813-10.842a3.493 3.493 0 00-.976-3.03zm-1.101 2.68c-.572 3.455-2.429 6.9-5.227 9.698-2.798 2.798-6.24 4.655-9.694 5.227a1.378 1.378 0 01-1.195-.387l-3.062-3.062L8.663 17.9l3.51 3.516.026.026.633-.234a14.098 14.098 0 008.37-8.373l.234-.633-3.538-3.536 3.246-3.249 3.061 3.062c.317.316.463.761.39 1.195z" fill="#CE282E"/></svg>
